icons/svgs/download-outline.svg

<svg width="24" height="24" viewBox="0 0 24 24" fill="none" xmlns="http://www.w3.org/2000/svg">
<path d="M12.9375 2.9375V13.5234L16.6484 9.8125C17 9.42188 17.5859 9.42188 17.9766 9.8125C18.3281 10.1641 18.3281 10.75 17.9766 11.1016L12.625 16.4141C12.2734 16.8047 11.6875 16.8047 11.3359 16.4141L6.02344 11.1016C5.63281 10.75 5.63281 10.1641 6.02344 9.8125C6.375 9.42188 6.96094 9.42188 7.35156 9.8125L11.0625 13.5234V2.9375C11.0625 2.42969 11.4531 2 12 2C12.5078 2 12.9375 2.42969 12.9375 2.9375ZM7 13.875L8.875 15.75H4.5C4.14844 15.75 3.875 16.0625 3.875 16.375V19.5C3.875 19.8516 4.14844 20.125 4.5 20.125H19.5C19.8125 20.125 20.125 19.8516 20.125 19.5V16.375C20.125 16.0625 19.8125 15.75 19.5 15.75H15.0859L16.9609 13.875H19.5C20.8672 13.875 22 15.0078 22 16.375V19.5C22 20.9062 20.8672 22 19.5 22H4.5C3.09375 22 2 20.9062 2 19.5V16.375C2 15.0078 3.09375 13.875 4.5 13.875H7ZM18.875 17.9375C18.875 18.4844 18.4453 18.875 17.9375 18.875C17.3906 18.875 17 18.4844 17 17.9375C17 17.4297 17.3906 17 17.9375 17C18.4453 17 18.875 17.4297 18.875 17.9375Z" fill="black"/>
</svg>

<svg xmlns="http://www.w3.org/2000/svg" width="24" height="24" fill="currentColor" class="icon-download-outline" viewBox="0 0 24 24">
  <mask id="a" width="20" height="20" x="2" y="2" maskUnits="userSpaceOnUse" style="mask-type:alpha">
    <path d="M12.938 2.938v10.585l3.71-3.71c.352-.391.938-.391 1.329 0a.92.92 0 0 1 0 1.289l-5.352 5.312a.856.856 0 0 1-1.29 0l-5.312-5.312a.856.856 0 0 1 0-1.29c.352-.39.938-.39 1.329 0l3.71 3.711V2.938c0-.508.391-.938.938-.938a.95.95 0 0 1 .938.938M7 13.875l1.875 1.875H4.5a.64.64 0 0 0-.625.625V19.5c0 .352.273.625.625.625h15a.64.64 0 0 0 .625-.625v-3.125c0-.312-.312-.625-.625-.625h-4.414l1.875-1.875H19.5c1.367 0 2.5 1.133 2.5 2.5V19.5c0 1.406-1.133 2.5-2.5 2.5h-15A2.47 2.47 0 0 1 2 19.5v-3.125c0-1.367 1.094-2.5 2.5-2.5zm11.875 4.063c0 .546-.43.937-.937.937-.547 0-.938-.39-.938-.937 0-.508.39-.938.938-.938a.95.95 0 0 1 .937.938"/>
  </mask>
  <g mask="url(#a)">
    <path d="M0 0h24v24H0z"/>
  </g>
</svg>
